X:1
T:Title
%%score { ( 1 3 ) | 2 }
L:1/8
Q:1/4=100
M:4/4
K:Bb
V:1 treble nm="Grand Piano"
V:3 treble 
V:2 bass 
V:1
 B2 F2 D2 F2 | z4 z2 B2 | e2 d2 [Fc]2 [FB]2 | [EA]2 [DB]2 c4 | d2 c2 e2 d2 | %5
w: John~Christian~Bechler * * *|||||
 [Fc]2 [FB]2 [Fc]2 [A,CF]2 | [B,FB]2 F2 [Fd]2 [FB]2 |[M:8/4] f2 [CA]2 [DB]4 z8 | %8
w: |||
[M:4/4] [EB]4 [DB]4 |] %9
w: |
V:2
 B,2 F,2 D,2 F,2 | D,2 [F,A,]2 [B,,B,]2 [B,D]2 | [G,B,E]2 [F,B,F]2 [E,A,]2 [D,B,]2 | %3
 [C,F,]2 [B,,F,]2[K:treble] [F,A,F]4 | [B,F]2 [A,CF]2 [G,B,E]2 [F,B,F]2 | %5
 [E,A,]2 [D,B,]2 [F,A,]2 F,E, | D,2 F,2 [B,,B,]2 [D,B,]2 |[M:8/4] [F,B,D]2 [F,,F,]2 [B,,F,]4 z8 | %8
[M:4/4] [E,G,]4 [B,,B,]4 |] %9
V:3
 x8 | [B,FB]2 [Fc]2 [Fd]2 z A, | x8 | x8 | x8 | x8 | x8 |[M:8/4] x16 |[M:4/4] x8 |] %9

